;Sliced by ideaMaker 4.2.2.5450, 2021-12-21 00:50:12 UTC+0800
;Dimension: 100.000 100.000 125.000 0.400
;Plate Shape: 0
;Origin Center: 0
;Extruder Offset #1: 25.000 0.000
;Filament Diameter #1: 1.750
;Filament Diameter #2: 1.750
;Filament Compensation #1: 100.00
;Filament Compensation #2: 100.00
;Filament Density #1: 1120.00
;Filament Density #2: 1240.00
;Bounding Box: 20.000 80.001 34.498 65.502 0.000 48.050
;Model Gap: 0.000
M221 T0 S100.00
M140 S130.00
M190 S130.00
M104 T0 S310.00
M109 T0 S310.00
T0
PRINT_START
;TOTAL_NUM: 1
;PRINTING_TIME: 0
;REMAINING_TIME: 1283
;LAYER:0
;Z:0.300
;HEIGHT:0.300
M106 S0
;PRINTING: NON-OBJECT
;PRINTING_ID: -1
G0 F30000 X23.244 Y40.779
G0 F1200 Z0.300
;TYPE:SKIRT
;WIDTH:0.500
G1 F18000 X23.550 Y40.609 E0.0218
G1 X24.085 Y40.372 E0.0583
G1 X24.324 Y40.291 E0.0741
G1 X24.745 Y40.179 E0.1012
G1 X25.414 Y40.077 E0.1434
G1 X49.237 Y38.615 E1.6319
G1 X50.423 Y38.601 E1.7059
G1 X51.400 Y38.646 E1.7669
G1 X51.986 Y38.699 E1.8035
G1 X53.000 Y38.837 E1.8674
G1 X54.201 Y39.077 E1.9437
G1 X55.306 Y39.371 E2.0151
G1 X56.167 Y39.653 E2.0716
G1 X56.952 Y39.952 E2.1239
G1 X57.986 Y40.414 E2.1946
G1 X58.984 Y40.934 E2.2647
G1 X59.747 Y41.387 E2.3201
G1 X60.735 Y42.053 E2.3944
G1 X61.578 Y42.699 E2.4606
G1 X62.425 Y43.434 E2.5306
G1 X63.130 Y44.121 E2.5919
G1 X63.894 Y44.958 E2.6626
G1 X64.723 Y45.998 E2.7456
G1 X65.357 Y46.913 E2.8150
G1 X65.800 Y47.633 E2.8677
G1 X65.981 Y47.971 E2.8916
G1 X66.252 Y48.641 E2.9367
G1 X66.401 Y49.288 E2.9781
G1 X66.434 Y49.538 E2.9938
G1 X66.457 Y50.135 E3.0311
G1 X66.446 Y50.343 E3.0441
G1 X66.366 Y50.911 E3.0798
G1 X66.180 Y51.569 E3.1225
G1 X65.926 Y52.136 E3.1612
G1 X65.725 Y52.494 E3.1868
G1 X65.235 Y53.273 E3.2442
G1 X64.560 Y54.219 E3.3167
G1 X63.927 Y55.004 E3.3796
G1 X63.105 Y55.904 E3.4556
G1 X62.327 Y56.657 E3.5231
G1 X61.733 Y57.174 E3.5722
G1 X60.874 Y57.846 E3.6402
G1 X59.945 Y58.486 E3.7106
G1 X58.901 Y59.112 E3.7865
G1 X57.667 Y59.738 E3.8728
G1 X56.692 Y60.151 E3.9388
G1 X55.469 Y60.579 E4.0196
G1 X54.442 Y60.866 E4.0861
G1 X53.628 Y61.048 E4.1382
G1 X52.473 Y61.242 E4.2112
G1 X51.680 Y61.331 E4.2610
G1 X50.891 Y61.384 E4.3103
G1 X49.886 Y61.403 E4.3730
G1 X49.092 Y61.378 E4.4225
G1 X25.415 Y59.922 E5.9018
G1 X24.903 Y59.849 E5.9341
G1 X24.537 Y59.767 E5.9575
G1 X23.966 Y59.583 E5.9949
G1 X23.726 Y59.480 E6.0112
G1 X23.219 Y59.206 E6.0471
G1 X22.940 Y59.022 E6.0680
G1 X22.511 Y58.685 E6.1020
G1 X22.331 Y58.517 E6.1173
G1 X21.926 Y58.060 E6.1554
G1 X21.716 Y57.773 E6.1776
G1 X21.419 Y57.281 E6.2134
G1 X21.141 Y56.641 E6.2570
G1 X20.958 Y55.987 E6.2993
G1 X20.912 Y55.738 E6.3151
G1 X20.860 Y55.266 E6.3447
G1 X20.842 Y54.708 E6.3795
G1 X20.842 Y45.091 E6.9793
G1 X20.867 Y44.622 E7.0086
G1 X20.932 Y44.166 E7.0373
G1 X21.012 Y43.796 E7.0609
G1 X21.195 Y43.220 E7.0986
G1 X21.303 Y42.964 E7.1159
G1 X21.613 Y42.381 E7.1571
G1 X21.945 Y41.917 E7.1927
G1 X22.163 Y41.663 E7.2135
G1 X22.555 Y41.278 E7.2478
G1 X22.748 Y41.118 E7.2634
G1 X23.244 Y40.779 E7.3009
;PRINTING: 3DBenchy.stl
;PRINTING_ID: 0
G0 F30000 X25.243 Y44.244
;TYPE:WALL-INNER
;WIDTH:0.500
G1 F18000 X25.436 Y44.138 E7.3146
G1 X25.705 Y44.067 E7.3320
G1 X49.468 Y42.609 E8.8167
G1 X50.263 Y42.598 E8.8663
G1 X51.069 Y42.633 E8.9166
G1 X51.606 Y42.681 E8.9502
G1 X52.435 Y42.798 E9.0024
G1 X53.197 Y42.949 E9.0509
G1 X54.101 Y43.185 E9.1091
G1 X54.759 Y43.397 E9.1523
G1 X55.514 Y43.684 E9.2026
G1 X56.308 Y44.044 E9.2570
G1 X56.961 Y44.385 E9.3029
G1 X57.690 Y44.818 E9.3558
G1 X58.348 Y45.261 E9.4053
G1 X58.980 Y45.741 E9.4548
G1 X59.661 Y46.326 E9.5108
G1 X60.206 Y46.852 E9.5580
G1 X60.794 Y47.488 E9.6120
G1 X61.461 Y48.314 E9.6782
G1 X61.957 Y49.021 E9.7321
G1 X62.363 Y49.680 E9.7804
G1 X62.445 Y49.888 E9.7943
G1 X62.456 Y50.065 E9.8054
G1 X62.428 Y50.182 E9.8129
G1 X62.251 Y50.512 E9.8362
G1 X61.957 Y50.980 E9.8707
G1 X61.433 Y51.724 E9.9274
G1 X61.167 Y52.054 E9.9539
G1 X61.020 Y51.780 E9.9733
G1 X60.646 Y51.503 E10.0023
G1 X60.205 Y51.373 E10.0309
G1 X59.945 Y51.350 E10.0472
G1 X60.723 Y50.257 E10.1309
G1 X61.041 Y49.751 E10.1682
G1 X61.177 Y49.369 E10.1935
G1 X61.215 Y48.981 E10.2178
G1 X61.152 Y48.569 E10.2438
G1 X60.981 Y48.207 E10.2687
G1 X60.754 Y47.978 E10.2888
G1 X60.498 Y47.824 E10.3075
G1 X60.110 Y47.735 E10.3323
G1 X57.822 Y47.733 E10.4750
G1 X57.460 Y47.774 E10.4977
G1 X57.113 Y47.886 E10.5204
G1 X56.752 Y48.167 E10.5490
G1 X56.699 Y48.090 E10.5548
G1 X56.322 Y47.823 E10.5836
G1 X56.018 Y47.735 E10.6033
G1 X55.671 Y47.739 E10.6250
G1 X55.262 Y47.919 E10.6528
G1 X54.936 Y48.257 E10.6821
G1 X54.734 Y48.593 E10.7066
G1 X54.531 Y49.104 E10.7409
G1 X54.379 Y48.574 E10.7753
G1 X54.187 Y48.235 E10.7996
G1 X53.949 Y48.005 E10.8202
G1 X53.704 Y47.861 E10.8379
G1 X53.410 Y47.763 E10.8572
G1 X53.142 Y47.730 E10.8741
G1 X52.847 Y47.752 E10.8925
G1 X52.516 Y47.863 E10.9143
G1 X52.220 Y48.112 E10.9384
G1 X52.149 Y48.233 E10.9472
G1 X51.976 Y48.016 E10.9645
G1 X51.582 Y47.773 E10.9933
G1 X51.129 Y47.720 E11.0218
G1 X50.753 Y47.832 E11.0463
G1 X50.458 Y48.024 E11.0682
G1 X50.220 Y48.255 E11.0889
G1 X50.178 Y48.316 E11.0935
G1 X50.021 Y48.126 E11.1089
G1 X49.740 Y47.890 E11.1318
G1 X49.283 Y47.719 E11.1622
G1 X48.762 Y47.772 E11.1949
G1 X48.302 Y48.019 E11.2274
G1 X47.996 Y48.421 E11.2589
G1 X47.915 Y48.804 E11.2833
G1 X47.930 Y49.093 E11.3014
G1 X48.059 Y49.522 E11.3293
G1 X48.656 Y50.595 E11.4059
G1 X48.762 Y50.754 E11.4178
G1 X48.568 Y51.036 E11.4392
G1 X48.293 Y51.507 E11.4732
G1 X48.150 Y51.285 E11.4896
G1 X47.936 Y51.057 E11.5091
G1 X47.690 Y50.874 E11.5283
G1 X47.415 Y50.735 E11.5475
G1 X47.098 Y50.641 E11.5681
G1 X46.651 Y50.612 E11.5960
G1 X46.319 Y50.679 E11.6171
G1 X46.367 Y50.176 E11.6487
G1 X46.367 Y49.704 E11.6781
G1 X46.295 Y49.007 E11.7218
G1 X46.201 Y48.591 E11.7484
G1 X46.082 Y48.232 E11.7720
G1 X45.921 Y47.881 E11.7961
G1 X45.761 Y47.606 E11.8159
G1 X45.417 Y47.170 E11.8505
G1 X45.035 Y46.840 E11.8820
G1 X44.571 Y46.582 E11.9151
G1 X44.047 Y46.419 E11.9493
G1 X43.566 Y46.340 E11.9797
G1 X43.178 Y46.308 E12.0040
G1 X41.700 Y46.284 E12.0962
G1 X41.267 Y46.334 E12.1234
G1 X40.867 Y46.496 E12.1503
G1 X40.588 Y46.740 E12.1734
G1 X40.430 Y46.996 E12.1922
G1 X40.354 Y47.275 E12.2102
G1 X40.342 Y47.514 E12.2251
G1 X40.385 Y48.110 E12.2624
G1 X40.374 Y50.610 E12.4183
G1 X40.219 Y50.053 E12.4544
G1 X40.027 Y49.632 E12.4832
G1 X39.894 Y49.475 E12.4961
G1 X40.005 Y49.320 E12.5079
G1 X40.154 Y48.905 E12.5354
G1 X40.209 Y48.455 E12.5637
G1 X40.213 Y47.939 E12.5959
G1 X40.141 Y47.549 E12.6206
G1 X39.931 Y47.093 E12.6519
G1 X39.579 Y46.691 E12.6853
G1 X39.139 Y46.396 E12.7183
G1 X38.636 Y46.216 E12.7516
G1 X38.187 Y46.140 E12.7800
G1 X37.702 Y46.119 E12.8103
G1 X37.259 Y46.152 E12.8380
G1 X36.775 Y46.254 E12.8688
G1 X36.345 Y46.429 E12.8978
G1 X35.956 Y46.678 E12.9266
G1 X35.763 Y46.886 E12.9443
G1 X35.611 Y46.643 E12.9622
G1 X35.316 Y46.418 E12.9853
G1 X34.985 Y46.314 E13.0069
G1 X34.743 Y46.291 E13.0221
G1 X31.503 Y46.306 E13.2241
G1 X30.855 Y46.259 E13.2647
G1 X30.450 Y46.320 E13.2902
G1 X30.101 Y46.514 E13.3151
G1 X29.858 Y46.787 E13.3379
G1 X29.753 Y47.011 E13.3533
G1 X29.340 Y46.632 E13.3883
G1 X28.877 Y46.366 E13.4216
G1 X28.477 Y46.225 E13.4480
G1 X28.168 Y46.162 E13.4677
G1 X27.856 Y46.129 E13.4873
G1 X27.375 Y46.127 E13.5173
G1 X26.854 Y46.196 E13.5500
G1 X26.423 Y46.319 E13.5780
G1 X26.030 Y46.498 E13.6049
G1 X25.764 Y46.659 E13.6243
G1 X25.430 Y46.923 E13.6509
G1 X25.208 Y47.147 E13.6705
G1 X24.944 Y47.488 E13.6974
G1 X24.842 Y47.660 E13.7099
G1 X24.842 Y45.115 E13.8686
G1 X24.854 Y44.959 E13.8784
G1 X24.907 Y44.709 E13.8943
G1 X25.021 Y44.476 E13.9105
G1 X25.243 Y44.244 E13.9305
G0 F30000 X27.280 Y48.675
G1 F18000 X27.384 Y48.640 E13.9373
G1 X27.577 Y48.625 E13.9494
G1 X27.677 Y48.664 E13.9561
G1 X28.291 Y49.021 E14.0004
G1 X28.644 Y49.133 E14.0235
G1 X29.008 Y49.153 E14.0462
G1 X29.332 Y49.065 E14.0672
G1 X29.586 Y48.916 E14.0855
G1 X29.813 Y48.690 E14.1055
G1 X29.981 Y48.423 E14.1252
G1 X30.085 Y48.542 E14.1350
G1 X30.424 Y48.734 E14.1593
G1 X30.800 Y48.800 E14.1831
G1 X31.550 Y48.722 E14.2302
G1 X31.533 Y49.129 E14.2556
G1 X31.550 Y51.909 E14.4289
G1 X31.509 Y52.407 E14.4601
G1 X31.517 Y52.681 E14.4772
G1 X31.591 Y52.977 E14.4962
G1 X31.765 Y53.270 E14.5175
G1 X32.156 Y53.556 E14.5477
G1 X32.670 Y53.672 E14.5806
G1 X33.167 Y53.604 E14.6118
G1 X33.553 Y53.381 E14.6396
G1 X33.813 Y53.058 E14.6655
G1 X33.955 Y52.669 E14.6913
G1 X33.993 Y52.395 E14.7086
G1 X33.977 Y48.754 E14.9356
G1 X34.588 Y48.751 E14.9737
G1 X34.960 Y48.704 E14.9971
G1 X35.251 Y48.608 E15.0162
G1 X35.499 Y48.450 E15.0346
G1 X35.633 Y48.306 E15.0468
G1 X35.670 Y48.384 E15.0522
G1 X35.924 Y48.687 E15.0769
G1 X36.339 Y48.937 E15.1071
G1 X36.385 Y48.941 E15.1100
G1 X36.287 Y49.082 E15.1207
G1 X36.188 Y49.339 E15.1379
G1 X36.136 Y49.593 E15.1540
G1 X36.136 Y49.913 E15.1740
G1 X36.271 Y50.358 E15.2030
G1 X36.636 Y50.705 E15.2344
G1 X36.984 Y50.838 E15.2576
G1 X37.492 Y50.932 E15.2898
G1 X37.691 Y51.029 E15.3036
G1 X37.757 Y51.088 E15.3092
G1 X37.868 Y51.272 E15.3226
G1 X37.868 Y51.339 E15.3267
G1 X37.837 Y51.387 E15.3303
G1 X37.474 Y51.132 E15.3580
G1 X37.097 Y50.974 E15.3835
G1 X36.724 Y50.932 E15.4069
G1 X36.453 Y50.955 E15.4238
G1 X36.167 Y51.038 E15.4424
G1 X35.856 Y51.219 E15.4648
G1 X35.562 Y51.596 E15.4947
G1 X35.446 Y52.023 E15.5223
G1 X35.487 Y52.510 E15.5527
G1 X35.632 Y52.878 E15.5774
G1 X35.849 Y53.174 E15.6003
G1 X36.142 Y53.414 E15.6239
G1 X36.464 Y53.584 E15.6466
G1 X36.738 Y53.680 E15.6647
G1 X37.112 Y53.764 E15.6886
G1 X37.421 Y53.799 E15.7080
G1 X38.031 Y53.798 E15.7461
G1 X38.591 Y53.706 E15.7815
G1 X39.104 Y53.504 E15.8158
G1 X39.562 Y53.192 E15.8504
G1 X39.941 Y52.782 E15.8852
G1 X40.231 Y52.288 E15.9209
G1 X40.368 Y51.877 E15.9480
G1 X40.366 Y52.405 E15.9809
G1 X40.433 Y52.816 E16.0069
G1 X40.633 Y53.241 E16.0361
G1 X40.995 Y53.560 E16.0662
G1 X41.465 Y53.674 E16.0964
G1 X42.046 Y53.626 E16.1327
G1 X42.947 Y53.632 E16.1889
G1 X43.585 Y53.588 E16.2288
G1 X44.038 Y53.505 E16.2575
G1 X44.437 Y53.382 E16.2836
G1 X44.817 Y53.193 E16.3100
G1 X45.131 Y52.970 E16.3341
G1 X45.184 Y53.114 E16.3436
G1 X45.342 Y53.385 E16.3632
G1 X45.567 Y53.643 E16.3845
G1 X45.901 Y53.890 E16.4105
G1 X46.199 Y54.022 E16.4308
G1 X46.497 Y54.096 E16.4499
G1 X46.817 Y54.117 E16.4699
G1 X47.201 Y54.065 E16.4941
G1 X47.548 Y53.935 E16.5172
G1 X47.817 Y53.769 E16.5369
G1 X48.049 Y53.562 E16.5563
G1 X48.145 Y53.439 E16.5660
G1 X48.556 Y53.739 E16.5978
G1 X48.956 Y53.842 E16.6235
G1 X49.393 Y53.795 E16.6509
G1 X49.785 Y53.551 E16.6797
G1 X50.022 Y53.278 E16.7023
G1 X50.110 Y53.147 E16.7121
G1 X50.289 Y53.412 E16.7321
G1 X50.494 Y53.617 E16.7501
G1 X50.910 Y53.830 E16.7793
G1 X51.393 Y53.850 E16.8094
G1 X51.828 Y53.718 E16.8378
G1 X52.207 Y53.411 E16.8682
G1 X52.394 Y53.039 E16.8942
G1 X52.446 Y52.734 E16.9135
G1 X52.426 Y52.381 E16.9355
G1 X52.351 Y52.112 E16.9529
G1 X52.208 Y51.818 E16.9733
G1 X51.546 Y50.705 E17.0541
G1 X52.124 Y49.725 E17.1250
G1 X52.421 Y50.461 E17.1745
G1 X53.074 Y52.215 E17.2912
G1 X53.285 Y52.708 E17.3247
G1 X53.053 Y53.233 E17.3605
G1 X52.873 Y53.707 E17.3921
G1 X52.821 Y53.791 E17.3983
G1 X52.740 Y53.862 E17.4050
G1 X52.681 Y53.888 E17.4090
G1 X52.163 Y54.037 E17.4426
G1 X51.865 Y54.231 E17.4648
G1 X51.675 Y54.465 E17.4836
G1 X51.566 Y54.731 E17.5015
G1 X51.529 Y55.057 E17.5220
G1 X51.603 Y55.479 E17.5487
G1 X51.837 Y55.924 E17.5800
G1 X52.232 Y56.251 E17.6120
G1 X52.714 Y56.376 E17.6431
G1 X53.143 Y56.350 E17.6699
G1 X53.646 Y56.212 E17.7024
G1 X53.972 Y56.068 E17.7246
G1 X54.288 Y55.862 E17.7482
G1 X54.556 Y55.598 E17.7716
G1 X54.771 Y55.287 E17.7952
G1 X54.914 Y55.023 E17.8139
G1 X55.141 Y54.506 E17.8491
G1 X55.551 Y53.446 E17.9200
G1 X56.735 Y50.093 E18.1418
G1 X56.839 Y49.857 E18.1578
G1 X56.871 Y49.895 E18.1609
G1 X57.218 Y50.101 E18.1861
G1 X57.567 Y50.188 E18.2085
G1 X57.726 Y50.203 E18.2185
G1 X56.844 Y51.420 E18.3122
G1 X56.588 Y51.863 E18.3441
G1 X56.457 Y52.301 E18.3726
G1 X56.447 Y52.620 E18.3926
G1 X56.485 Y52.881 E18.4090
G1 X56.584 Y53.172 E18.4282
G1 X56.760 Y53.459 E18.4492
G1 X57.119 Y53.744 E18.4778
G1 X57.484 Y53.842 E18.5013
G1 X57.735 Y53.854 E18.5170
G1 X58.250 Y53.824 E18.5492
G1 X59.484 Y53.831 E18.6261
G1 X59.238 Y54.047 E18.6465
G1 X58.590 Y54.561 E18.6981
G1 X57.679 Y55.189 E18.7671
G1 X56.904 Y55.647 E18.8233
G1 X56.065 Y56.072 E18.8819
G1 X55.320 Y56.394 E18.9325
G1 X54.349 Y56.740 E18.9968
G1 X53.558 Y56.964 E19.0481
G1 X52.778 Y57.138 E19.0979
G1 X51.996 Y57.270 E19.1474
G1 X51.383 Y57.342 E19.1859
G1 X50.647 Y57.391 E19.2319
G1 X49.988 Y57.404 E19.2730
G1 X49.321 Y57.384 E19.3146
G1 X25.719 Y55.933 E20.7892
G1 X25.480 Y55.879 E20.8045
G1 X25.365 Y55.830 E20.8123
G1 X25.196 Y55.718 E20.8250
G1 X25.110 Y55.637 E20.8323
G1 X24.987 Y55.470 E20.8453
G1 X24.882 Y55.211 E20.8627
G1 X24.856 Y55.066 E20.8719
G1 X24.842 Y54.690 E20.8954
G1 X24.842 Y52.268 E21.0464
G1 X25.070 Y52.618 E21.0724
G1 X25.370 Y52.952 E21.1004
G1 X25.711 Y53.234 E21.1280
G1 X26.088 Y53.463 E21.1555
G1 X26.495 Y53.635 E21.1831
G1 X26.841 Y53.730 E21.2055
G1 X27.296 Y53.796 E21.2341
G1 X27.700 Y53.805 E21.2593
G1 X28.106 Y53.776 E21.2847
G1 X28.677 Y53.645 E21.3213
G1 X29.012 Y53.500 E21.3440
G1 X29.256 Y53.356 E21.3617
G1 X29.545 Y53.121 E21.3849
G1 X29.739 Y52.907 E21.4029
G1 X29.948 Y52.588 E21.4267
G1 X30.145 Y52.102 E21.4594
G1 X30.046 Y51.558 E21.4939
G1 X29.800 Y51.195 E21.5213
G1 X29.400 Y50.915 E21.5517
G1 X29.032 Y50.805 E21.5757
G1 X28.729 Y50.783 E21.5946
G1 X28.285 Y50.879 E21.6229
G1 X27.973 Y51.087 E21.6463
G1 X27.810 Y51.271 E21.6616
G1 X27.670 Y51.304 E21.6706
G1 X27.512 Y51.307 E21.6805
G1 X27.342 Y51.276 E21.6913
G1 X27.237 Y51.233 E21.6983
G1 X27.072 Y51.109 E21.7112
G1 X27.005 Y51.015 E21.7184
G1 X26.933 Y50.858 E21.7292
G1 X26.867 Y50.620 E21.7446
G1 X26.815 Y50.074 E21.7788
G1 X26.835 Y49.535 E21.8124
G1 X26.884 Y49.246 E21.8307
G1 X26.972 Y48.986 E21.8478
G1 X27.060 Y48.841 E21.8584
G1 X27.141 Y48.759 E21.8656
G1 X27.280 Y48.675 E21.8757
G0 F30000 X27.280 Y48.147
;TYPE:WALL-OUTER
;WIDTH:0.500
G1 F18000 X27.601 Y48.122 E21.8958
G1 X27.711 Y48.140 E21.9027
G1 X27.893 Y48.212 E21.9149
G1 X28.494 Y48.561 E21.9583
G1 X28.734 Y48.637 E21.9740
G1 X28.955 Y48.649 E21.9878
G1 X29.137 Y48.600 E21.9995
G1 X29.278 Y48.517 E22.0097
G1 X29.420 Y48.376 E22.0222
G1 X29.518 Y48.220 E22.0337
G1 X29.594 Y47.943 E22.0516
G1 X29.582 Y47.747 E22.0639
G1 X29.536 Y47.601 E22.0734
G1 X29.358 Y47.321 E22.0941
G1 X29.045 Y47.039 E22.1204
G1 X28.668 Y46.822 E22.1475
G1 X28.344 Y46.708 E22.1689
G1 X28.092 Y46.657 E22.1850
G1 X27.828 Y46.629 E22.2015
G1 X27.407 Y46.627 E22.2278
G1 X26.956 Y46.687 E22.2561
G1 X26.596 Y46.790 E22.2795
G1 X26.264 Y46.941 E22.3022
G1 X26.049 Y47.071 E22.3179
G1 X25.764 Y47.296 E22.3406
G1 X25.585 Y47.477 E22.3564
G1 X25.358 Y47.770 E22.3795
G1 X25.222 Y47.999 E22.3962
G1 X25.014 Y48.493 E22.4296
G1 X24.902 Y48.942 E22.4584
G1 X24.850 Y49.282 E22.4799
G1 X24.814 Y49.802 E22.5124
G1 X24.814 Y50.178 E22.5358
G1 X24.843 Y50.595 E22.5619
G1 X24.903 Y51.003 E22.5876
G1 X25.065 Y51.585 E22.6253
G1 X25.225 Y51.939 E22.6495
G1 X25.468 Y52.313 E22.6773
G1 X25.717 Y52.590 E22.7006
G1 X26.002 Y52.826 E22.7236
G1 X26.316 Y53.017 E22.7466
G1 X26.659 Y53.162 E22.7698
G1 X26.943 Y53.240 E22.7882
G1 X27.338 Y53.297 E22.8130
G1 X27.688 Y53.305 E22.8349
G1 X28.032 Y53.280 E22.8564
G1 X28.521 Y53.168 E22.8877
G1 X28.785 Y53.054 E22.9056
G1 X28.969 Y52.945 E22.9189
G1 X29.200 Y52.757 E22.9375
G1 X29.342 Y52.600 E22.9507
G1 X29.503 Y52.355 E22.9690
G1 X29.627 Y52.049 E22.9896
G1 X29.573 Y51.751 E23.0085
G1 X29.438 Y51.552 E23.0235
